flaticon/constructions/wood-1.svg

<svg xmlns="http://www.w3.org/2000/svg" width="32" height="32" viewBox="0 0 24 24">
    <path d="M6.800781 7.601562C7.039062 7.601562 7.199219 7.441406 7.199219 7.199219 7.199219 6.960938 7.359375 6.800781 7.601562 6.800781 7.839844 6.800781 8 6.640625 8 6.398438 8 6.160156 7.839844 6 7.601562 6 6.921875 6 6.398438 6.519531 6.398438 7.199219 6.398438 7.441406 6.558594 7.601562 6.800781 7.601562zM4 12.398438C4.238281 12.398438 4.398438 12.238281 4.398438 12 4.398438 11.761719 4.558594 11.601562 4.800781 11.601562 5.039062 11.601562 5.199219 11.441406 5.199219 11.199219 5.199219 10.960938 5.039062 10.800781 4.800781 10.800781 4.121094 10.800781 3.601562 11.320312 3.601562 12 3.601562 12.238281 3.761719 12.398438 4 12.398438zM3.199219 16C3.199219 15.761719 3.039062 15.601562 2.800781 15.601562 2.121094 15.601562 1.601562 16.121094 1.601562 16.800781 1.601562 17.039062 1.761719 17.199219 2 17.199219 2.238281 17.199219 2.398438 17.039062 2.398438 16.800781 2.398438 16.558594 2.558594 16.398438 2.800781 16.398438 3.039062 16.398438 3.199219 16.238281 3.199219 16zM7.601562 15.601562C6.921875 15.601562 6.398438 16.121094 6.398438 16.800781 6.398438 17.039062 6.558594 17.199219 6.800781 17.199219 7.039062 17.199219 7.199219 17.039062 7.199219 16.800781 7.199219 16.558594 7.359375 16.398438 7.601562 16.398438 7.839844 16.398438 8 16.238281 8 16 8 15.761719 7.839844 15.601562 7.601562 15.601562zM13.601562 8.398438L16 8.398438C16.238281 8.398438 16.398438 8.238281 16.398438 8 16.398438 7.761719 16.238281 7.601562 16 7.601562L13.601562 7.601562C13.359375 7.601562 13.199219 7.761719 13.199219 8 13.199219 8.238281 13.359375 8.398438 13.601562 8.398438zM14 6.800781L14.398438 6.800781C14.640625 6.800781 14.800781 6.640625 14.800781 6.398438 14.800781 6.160156 14.640625 6 14.398438 6L14 6C13.761719 6 13.601562 6.160156 13.601562 6.398438 13.601562 6.640625 13.761719 6.800781 14 6.800781zM8.800781 12.398438C9.039062 12.398438 9.199219 12.238281 9.199219 12 9.199219 11.761719 9.359375 11.601562 9.601562 11.601562 9.839844 11.601562 10 11.441406 10 11.199219 10 10.960938 9.839844 10.800781 9.601562 10.800781 8.921875 10.800781 8.398438 11.320312 8.398438 12 8.398438 12.238281 8.558594 12.398438 8.800781 12.398438zM15.601562 13.199219L18 13.199219C18.238281 13.199219 18.398438 13.039062 18.398438 12.800781 18.398438 12.558594 18.238281 12.398438 18 12.398438L15.601562 12.398438C15.359375 12.398438 15.199219 12.558594 15.199219 12.800781 15.199219 13.039062 15.359375 13.199219 15.601562 13.199219zM16 11.601562L16.398438 11.601562C16.640625 11.601562 16.800781 11.441406 16.800781 11.199219 16.800781 10.960938 16.640625 10.800781 16.398438 10.800781L16 10.800781C15.761719 10.800781 15.601562 10.960938 15.601562 11.199219 15.601562 11.441406 15.761719 11.601562 16 11.601562zM12.398438 15.601562C11.71875 15.601562 11.199219 16.121094 11.199219 16.800781 11.199219 17.039062 11.359375 17.199219 11.601562 17.199219 11.839844 17.199219 12 17.039062 12 16.800781 12 16.558594 12.160156 16.398438 12.398438 16.398438 12.640625 16.398438 12.800781 16.238281 12.800781 16 12.800781 15.761719 12.640625 15.601562 12.398438 15.601562zM20.800781 17.199219L18.398438 17.199219C18.160156 17.199219 18 17.359375 18 17.601562 18 17.839844 18.160156 18 18.398438 18L20.800781 18C21.039062 18 21.199219 17.839844 21.199219 17.601562 21.199219 17.359375 21.039062 17.199219 20.800781 17.199219zM18.800781 16.398438L19.199219 16.398438C19.441406 16.398438 19.601562 16.238281 19.601562 16 19.601562 15.761719 19.441406 15.601562 19.199219 15.601562L18.800781 15.601562C18.558594 15.601562 18.398438 15.761719 18.398438 16 18.398438 16.238281 18.558594 16.398438 18.800781 16.398438zM18.800781 16.398438"/>
    <path d="M 23.878906 17.625 C 23.957031 17.363281 24 17.089844 24 16.800781 C 24 16.511719 23.957031 16.234375 23.878906 15.976562 C 23.875 15.882812 23.84375 15.800781 23.792969 15.738281 C 23.382812 14.714844 22.382812 14 21.199219 14 L 20.371094 14 C 20.644531 13.726562 20.863281 13.398438 21.007812 13.03125 C 21.046875 12.972656 21.074219 12.902344 21.078125 12.824219 C 21.15625 12.566406 21.199219 12.289062 21.199219 12 C 21.199219 11.710938 21.15625 11.4375 21.078125 11.175781 C 21.074219 11.082031 21.046875 11 20.996094 10.9375 C 20.582031 9.914062 19.582031 9.199219 18.398438 9.199219 L 18.371094 9.199219 C 18.644531 8.929688 18.863281 8.597656 19.007812 8.230469 C 19.046875 8.171875 19.074219 8.105469 19.078125 8.027344 C 19.15625 7.765625 19.199219 7.488281 19.199219 7.199219 C 19.199219 6.914062 19.15625 6.636719 19.078125 6.375 C 19.074219 6.28125 19.046875 6.199219 18.996094 6.136719 C 18.582031 5.113281 17.582031 4.398438 16.398438 4.398438 L 7.601562 4.398438 C 6.039062 4.398438 4.800781 5.640625 4.800781 7.199219 C 4.800781 8.101562 5.214844 8.898438 5.867188 9.40625 C 5.539062 9.273438 5.179688 9.199219 4.800781 9.199219 C 3.238281 9.199219 2 10.441406 2 12 C 2 12.789062 2.316406 13.496094 2.832031 14 C 2.820312 14 2.8125 14 2.800781 14 C 1.238281 14 0 15.238281 0 16.800781 C 0 18.359375 1.238281 19.601562 2.800781 19.601562 L 21.199219 19.601562 C 22.394531 19.601562 23.402344 18.871094 23.808594 17.828125 C 23.847656 17.773438 23.875 17.703125 23.878906 17.625 Z M 18.398438 10 C 19.066406 10 19.648438 10.3125 20.007812 10.800781 L 18 10.800781 C 17.761719 10.800781 17.601562 10.960938 17.601562 11.199219 C 17.601562 11.441406 17.761719 11.601562 18 11.601562 L 20.359375 11.601562 C 20.386719 11.730469 20.398438 11.863281 20.398438 12 C 20.398438 12.136719 20.386719 12.269531 20.359375 12.398438 L 19.601562 12.398438 C 19.359375 12.398438 19.199219 12.558594 19.199219 12.800781 C 19.199219 13.039062 19.359375 13.199219 19.601562 13.199219 L 20.007812 13.199219 C 19.648438 13.6875 19.066406 14 18.398438 14 L 11.570312 14 C 11.800781 13.769531 11.996094 13.5 12.136719 13.199219 L 13.601562 13.199219 C 13.839844 13.199219 14 13.039062 14 12.800781 C 14 12.558594 13.839844 12.398438 13.601562 12.398438 L 12.371094 12.398438 C 12.378906 12.363281 12.382812 12.328125 12.386719 12.289062 C 12.386719 12.28125 12.386719 12.277344 12.386719 12.269531 C 12.390625 12.230469 12.394531 12.1875 12.394531 12.144531 C 12.398438 12.097656 12.398438 12.050781 12.398438 12 C 12.398438 11.949219 12.398438 11.902344 12.394531 11.855469 C 12.394531 11.8125 12.390625 11.769531 12.386719 11.730469 C 12.386719 11.722656 12.386719 11.71875 12.386719 11.710938 C 12.382812 11.671875 12.378906 11.636719 12.371094 11.601562 L 14.398438 11.601562 C 14.640625 11.601562 14.800781 11.441406 14.800781 11.199219 C 14.800781 10.960938 14.640625 10.800781 14.398438 10.800781 L 12.136719 10.800781 C 11.996094 10.5 11.800781 10.230469 11.570312 10 Z M 12.398438 18.800781 C 11.28125 18.800781 10.398438 17.921875 10.398438 16.800781 C 10.398438 15.679688 11.28125 14.800781 12.398438 14.800781 C 13.519531 14.800781 14.398438 15.679688 14.398438 16.800781 C 14.398438 17.921875 13.519531 18.800781 12.398438 18.800781 Z M 7.601562 18.800781 C 6.480469 18.800781 5.601562 17.921875 5.601562 16.800781 C 5.601562 15.679688 6.480469 14.800781 7.601562 14.800781 C 8.71875 14.800781 9.601562 15.679688 9.601562 16.800781 C 9.601562 17.921875 8.71875 18.800781 7.601562 18.800781 Z M 9.601562 10 C 10.71875 10 11.601562 10.878906 11.601562 12 C 11.601562 13.121094 10.71875 14 9.601562 14 C 8.480469 14 7.601562 13.121094 7.601562 12 C 7.601562 10.878906 8.480469 10 9.601562 10 Z M 9.601562 14.800781 L 10.429688 14.800781 C 10.265625 14.960938 10.121094 15.144531 10 15.347656 C 9.878906 15.144531 9.734375 14.960938 9.570312 14.800781 C 9.578125 14.800781 9.589844 14.800781 9.601562 14.800781 Z M 7.632812 14 C 7.621094 14 7.609375 14 7.601562 14 C 7.222656 14 6.863281 14.074219 6.535156 14.207031 C 6.796875 14 7.023438 13.746094 7.199219 13.453125 C 7.320312 13.65625 7.464844 13.839844 7.632812 14 Z M 16.398438 5.199219 C 17.066406 5.199219 17.648438 5.511719 18.007812 6 L 16 6 C 15.761719 6 15.601562 6.160156 15.601562 6.398438 C 15.601562 6.640625 15.761719 6.800781 16 6.800781 L 18.359375 6.800781 C 18.386719 6.929688 18.398438 7.0625 18.398438 7.199219 C 18.398438 7.335938 18.386719 7.472656 18.359375 7.601562 L 17.601562 7.601562 C 17.359375 7.601562 17.199219 7.761719 17.199219 8 C 17.199219 8.238281 17.359375 8.398438 17.601562 8.398438 L 18.007812 8.398438 C 17.648438 8.886719 17.066406 9.199219 16.398438 9.199219 L 9.570312 9.199219 C 9.800781 8.96875 9.996094 8.699219 10.136719 8.398438 L 11.601562 8.398438 C 11.839844 8.398438 12 8.238281 12 8 C 12 7.761719 11.839844 7.601562 11.601562 7.601562 L 10.371094 7.601562 C 10.375 7.5625 10.382812 7.527344 10.386719 7.488281 C 10.386719 7.484375 10.386719 7.476562 10.386719 7.46875 C 10.390625 7.429688 10.394531 7.386719 10.394531 7.347656 C 10.398438 7.296875 10.398438 7.25 10.398438 7.199219 C 10.398438 7.152344 10.398438 7.101562 10.394531 7.054688 C 10.394531 7.011719 10.390625 6.972656 10.386719 6.929688 C 10.386719 6.921875 10.386719 6.917969 10.386719 6.910156 C 10.382812 6.875 10.375 6.835938 10.371094 6.800781 L 12.398438 6.800781 C 12.640625 6.800781 12.800781 6.640625 12.800781 6.398438 C 12.800781 6.160156 12.640625 6 12.398438 6 L 10.136719 6 C 9.996094 5.699219 9.800781 5.429688 9.570312 5.199219 Z M 5.601562 7.199219 C 5.601562 6.078125 6.480469 5.199219 7.601562 5.199219 C 8.71875 5.199219 9.601562 6.078125 9.601562 7.199219 C 9.601562 8.320312 8.71875 9.199219 7.601562 9.199219 C 6.480469 9.199219 5.601562 8.320312 5.601562 7.199219 Z M 7.601562 10 L 7.628906 10 C 7.464844 10.164062 7.320312 10.347656 7.199219 10.546875 C 7.023438 10.253906 6.796875 10 6.535156 9.792969 C 6.859375 9.925781 7.222656 10 7.601562 10 Z M 2.800781 12 C 2.800781 10.878906 3.679688 10 4.800781 10 C 5.921875 10 6.800781 10.878906 6.800781 12 C 6.800781 13.121094 5.921875 14 4.800781 14 C 3.679688 14 2.800781 13.121094 2.800781 12 Z M 4.800781 14.800781 C 5.179688 14.800781 5.539062 14.726562 5.867188 14.59375 C 5.601562 14.800781 5.375 15.054688 5.199219 15.347656 C 5.078125 15.144531 4.933594 14.960938 4.769531 14.800781 C 4.777344 14.800781 4.789062 14.800781 4.800781 14.800781 Z M 0.800781 16.800781 C 0.800781 15.679688 1.679688 14.800781 2.800781 14.800781 C 3.921875 14.800781 4.800781 15.679688 4.800781 16.800781 C 4.800781 17.921875 3.921875 18.800781 2.800781 18.800781 C 1.679688 18.800781 0.800781 17.921875 0.800781 16.800781 Z M 4.769531 18.800781 C 4.933594 18.636719 5.078125 18.453125 5.199219 18.253906 C 5.320312 18.453125 5.464844 18.636719 5.628906 18.800781 Z M 9.570312 18.800781 C 9.734375 18.636719 9.878906 18.453125 10 18.253906 C 10.121094 18.453125 10.265625 18.636719 10.429688 18.800781 Z M 21.199219 18.800781 L 14.371094 18.800781 C 14.601562 18.570312 14.792969 18.300781 14.933594 18 L 16.398438 18 C 16.640625 18 16.800781 17.839844 16.800781 17.601562 C 16.800781 17.359375 16.640625 17.199219 16.398438 17.199219 L 15.171875 17.199219 C 15.175781 17.164062 15.183594 17.125 15.1875 17.089844 C 15.1875 17.082031 15.1875 17.078125 15.1875 17.070312 C 15.191406 17.027344 15.195312 16.988281 15.195312 16.945312 C 15.199219 16.898438 15.199219 16.847656 15.199219 16.800781 C 15.199219 16.75 15.199219 16.703125 15.195312 16.652344 C 15.195312 16.613281 15.191406 16.570312 15.1875 16.53125 C 15.1875 16.523438 15.1875 16.515625 15.1875 16.511719 C 15.183594 16.472656 15.175781 16.4375 15.171875 16.398438 L 17.199219 16.398438 C 17.441406 16.398438 17.601562 16.238281 17.601562 16 C 17.601562 15.761719 17.441406 15.601562 17.199219 15.601562 L 14.933594 15.601562 C 14.792969 15.300781 14.601562 15.03125 14.371094 14.800781 L 21.199219 14.800781 C 21.867188 14.800781 22.449219 15.113281 22.808594 15.601562 L 20.800781 15.601562 C 20.558594 15.601562 20.398438 15.761719 20.398438 16 C 20.398438 16.238281 20.558594 16.398438 20.800781 16.398438 L 23.160156 16.398438 C 23.1875 16.527344 23.199219 16.664062 23.199219 16.800781 C 23.199219 16.9375 23.1875 17.070312 23.160156 17.199219 L 22.398438 17.199219 C 22.160156 17.199219 22 17.359375 22 17.601562 C 22 17.839844 22.160156 18 22.398438 18 L 22.808594 18 C 22.449219 18.488281 21.867188 18.800781 21.199219 18.800781 Z M 21.199219 18.800781"/>
</svg>

<svg xmlns="http://www.w3.org/2000/svg" width="32" height="32" viewBox="0 0 24 24">
    <path d="M6.8 7.602c.24 0 .4-.16.4-.403 0-.238.16-.398.402-.398.238 0 .398-.16.398-.403C8 6.16 7.84 6 7.602 6c-.68 0-1.204.52-1.204 1.2 0 .241.16.402.403.402zm0 0M4 12.398c.238 0 .398-.16.398-.398 0-.238.16-.398.403-.398.238 0 .398-.16.398-.403 0-.238-.16-.398-.398-.398-.68 0-1.2.52-1.2 1.199 0 .238.16.398.399.398zm0 0M3.2 16c0-.238-.16-.398-.4-.398-.679 0-1.198.52-1.198 1.199 0 .238.16.398.398.398.238 0 .398-.16.398-.398 0-.242.16-.403.403-.403.238 0 .398-.16.398-.398zm0 0M7.602 15.602c-.68 0-1.204.52-1.204 1.199 0 .238.16.398.403.398.238 0 .398-.16.398-.398 0-.242.16-.403.403-.403.238 0 .398-.16.398-.398 0-.238-.16-.398-.398-.398zm0 0M13.602 8.398H16c.238 0 .398-.16.398-.398 0-.238-.16-.398-.398-.398h-2.398c-.243 0-.403.16-.403.398 0 .238.16.398.403.398zm0 0M14 6.8h.398c.243 0 .403-.16.403-.402 0-.238-.16-.398-.403-.398H14c-.238 0-.398.16-.398.398 0 .243.16.403.398.403zm0 0M8.8 12.398c.24 0 .4-.16.4-.398 0-.238.16-.398.402-.398.238 0 .398-.16.398-.403 0-.238-.16-.398-.398-.398-.68 0-1.204.52-1.204 1.199 0 .238.16.398.403.398zm0 0M15.602 13.2H18c.238 0 .398-.16.398-.4 0-.241-.16-.402-.398-.402h-2.398c-.243 0-.403.16-.403.403 0 .238.16.398.403.398zm0 0M16 11.602h.398c.243 0 .403-.16.403-.403 0-.238-.16-.398-.403-.398H16c-.238 0-.398.16-.398.398 0 .242.16.403.398.403zm0 0M12.398 15.602c-.68 0-1.199.52-1.199 1.199 0 .238.16.398.403.398.238 0 .398-.16.398-.398 0-.242.16-.403.398-.403.243 0 .403-.16.403-.398 0-.238-.16-.398-.403-.398zm0 0M20.8 17.2h-2.402c-.238 0-.398.16-.398.402 0 .238.16.398.398.398h2.403c.238 0 .398-.16.398-.398 0-.243-.16-.403-.398-.403zm0 0M18.8 16.398h.4c.241 0 .402-.16.402-.398 0-.238-.16-.398-.403-.398h-.398c-.242 0-.403.16-.403.398 0 .238.16.398.403.398zm0 0"/>
    <path d="M23.879 17.625a2.861 2.861 0 0 0 0-1.648.4.4 0 0 0-.086-.239A2.777 2.777 0 0 0 21.199 14h-.828c.274-.273.492-.602.637-.969a.41.41 0 0 0 .07-.207 2.841 2.841 0 0 0 0-1.648.398.398 0 0 0-.082-.239A2.786 2.786 0 0 0 18.398 9.2h-.027c.274-.27.492-.601.637-.969a.396.396 0 0 0 .07-.203 2.888 2.888 0 0 0 0-1.652.398.398 0 0 0-.082-.238 2.786 2.786 0 0 0-2.598-1.739H7.602A2.783 2.783 0 0 0 4.8 7.2c0 .903.414 1.7 1.066 2.207A2.834 2.834 0 0 0 4.801 9.2 2.783 2.783 0 0 0 2 12c0 .79.316 1.496.832 2h-.031A2.781 2.781 0 0 0 0 16.8c0 1.56 1.238 2.802 2.8 2.802h18.4c1.195 0 2.202-.73 2.609-1.774a.384.384 0 0 0 .07-.203zM18.399 10c.667 0 1.25.313 1.609.8H18c-.238 0-.398.16-.398.4 0 .241.16.402.398.402h2.36c.027.128.038.261.038.398s-.011.27-.039.398h-.757c-.243 0-.403.16-.403.403 0 .238.16.398.403.398h.406c-.36.489-.942.801-1.61.801H11.57c.23-.23.426-.5.567-.8h1.465c.238 0 .398-.16.398-.4 0-.241-.16-.402-.398-.402h-1.23a.921.921 0 0 0 .015-.109v-.02c.004-.039.008-.082.008-.124.003-.047.003-.094.003-.145 0-.05 0-.098-.003-.145 0-.043-.004-.085-.008-.125v-.02a.921.921 0 0 0-.016-.108h2.027c.243 0 .403-.16.403-.403 0-.238-.16-.398-.403-.398h-2.261c-.14-.301-.336-.57-.567-.801zm-6 8.8c-1.118 0-2-.878-2-2 0-1.12.882-2 2-2 1.12 0 2 .88 2 2 0 1.122-.88 2-2 2zm-4.797 0c-1.122 0-2-.878-2-2 0-1.12.878-2 2-2 1.117 0 2 .88 2 2 0 1.122-.883 2-2 2zm2-8.8c1.117 0 2 .879 2 2s-.883 2-2 2c-1.122 0-2-.879-2-2s.878-2 2-2zm0 4.8h.828c-.164.16-.309.345-.43.548a2.684 2.684 0 0 0-.43-.547h.032zm-1.97-.8h-.03c-.38 0-.739.074-1.067.207.262-.207.488-.46.664-.754.121.203.266.387.434.547zm8.766-8.8c.668 0 1.25.312 1.61.8H16c-.238 0-.398.16-.398.398 0 .243.16.403.398.403h2.36c.027.129.038.261.038.398s-.011.274-.039.403h-.757c-.243 0-.403.16-.403.398 0 .238.16.398.403.398h.406c-.36.489-.942.801-1.61.801H9.57c.23-.23.426-.5.567-.8h1.465c.238 0 .398-.16.398-.399 0-.238-.16-.398-.398-.398h-1.23c.003-.04.01-.075.015-.114v-.02a1.26 1.26 0 0 0 .008-.12c.003-.051.003-.098.003-.149 0-.047 0-.097-.003-.144 0-.043-.004-.082-.008-.125v-.02c-.004-.035-.012-.074-.016-.11h2.027c.243 0 .403-.16.403-.402 0-.238-.16-.398-.403-.398h-2.261c-.14-.3-.336-.57-.567-.8zm-10.796 2c0-1.122.878-2 2-2 1.117 0 2 .878 2 2 0 1.12-.883 2-2 2-1.122 0-2-.88-2-2zm2 2.8h.027a2.915 2.915 0 0 0-.43.547 2.797 2.797 0 0 0-.664-.754A2.82 2.82 0 0 0 7.602 10zM2.8 12c0-1.121.879-2 2-2 1.12 0 2 .879 2 2s-.88 2-2 2c-1.121 0-2-.879-2-2zm2 2.8c.379 0 .738-.073 1.066-.206-.265.207-.492.46-.668.754a2.684 2.684 0 0 0-.43-.547h.032zm-4 2c0-1.12.879-2 2-2 1.12 0 2 .88 2 2 0 1.122-.88 2-2 2-1.121 0-2-.878-2-2zm3.969 2c.164-.163.308-.347.43-.546.12.2.265.383.429.547zm4.8 0c.164-.163.309-.347.43-.546.121.2.266.383.43.547zm11.63 0H14.37c.23-.23.422-.5.563-.8h1.464c.243 0 .403-.16.403-.398 0-.243-.16-.403-.403-.403h-1.226c.004-.035.012-.074.015-.11v-.019c.004-.043.008-.082.008-.125.004-.047.004-.097.004-.144 0-.051 0-.098-.004-.149 0-.039-.004-.082-.008-.12v-.02c-.003-.04-.011-.075-.015-.114h2.027c.242 0 .403-.16.403-.398 0-.238-.16-.398-.403-.398h-2.265c-.141-.301-.332-.57-.563-.801H21.2c.668 0 1.25.312 1.61.8H20.8c-.242 0-.403.16-.403.399 0 .238.16.398.403.398h2.36c.026.13.038.266.038.403s-.012.27-.039.398h-.762c-.238 0-.398.16-.398.403 0 .238.16.398.398.398h.41c-.359.488-.94.8-1.609.8zm0 0"/>
</svg>
